teeny/solid/framer.svg

<svg width="15" height="15" viewBox="0 0 15 15" fill="none" xmlns="http://www.w3.org/2000/svg">
<path d="M2.03807 0.308658C2.11547 0.121821 2.29778 0 2.50001 0H12.5C12.7762 0 13 0.223858 13 0.5V5.5C13 5.77614 12.7762 6 12.5 6H8.70711L12.8536 10.1464C12.9966 10.2894 13.0393 10.5045 12.9619 10.6913C12.8845 10.8782 12.7022 11 12.5 11H8V14.5C8 14.7022 7.87818 14.8845 7.69134 14.9619C7.5045 15.0393 7.28945 14.9966 7.14645 14.8536L2.14645 9.85355C2.05268 9.75978 2 9.63261 2 9.5V5.5C2 5.22386 2.22386 5 2.5 5H6.29291L2.14646 0.853553C2.00346 0.710554 1.96068 0.495495 2.03807 0.308658Z" fill="black"/>
</svg>

<svg viewBox="0 0 15 15" xmlns="http://www.w3.org/2000/svg"><path d="M2.03.3c.07-.19.25-.31.46-.31h9.99c.27 0 .5.22.5.5v5c0 .27-.23.5-.5.5h-3.8l4.14 4.14c.14.14.18.35.1.54 -.08.18-.26.3-.47.3h-4.5v3.5c0 .2-.13.38-.31.46 -.19.07-.41.03-.55-.11l-5-5.01c-.1-.1-.15-.23-.15-.36v-4c0-.28.22-.5.5-.5h3.79L2.08.8C1.93.65 1.89.44 1.97.25Z"/></svg>
